img/illustrations/18 Узнать о ходе рассмотрения электронного обращения.svg

<svg width="145" height="145" viewBox="0 0 145 145" fill="none" xmlns="http://www.w3.org/2000/svg">
<path d="M5 121.34H140" stroke="#007B64" stroke-width="2" stroke-miterlimit="10" stroke-linecap="round"/>
<path d="M93.63 23H36.63C33.3163 23 30.63 25.6863 30.63 29V115C30.63 118.314 33.3163 121 36.63 121H93.63C96.9437 121 99.63 118.314 99.63 115V29C99.63 25.6863 96.9437 23 93.63 23Z" fill="white"/>
<path d="M31.05 112.26H99.98V116.41C99.98 117.718 99.4606 118.972 98.5361 119.896C97.6115 120.821 96.3576 121.34 95.05 121.34H35.97C34.6625 121.34 33.4086 120.821 32.484 119.896C31.5594 118.972 31.04 117.718 31.04 116.41V112.26H31.05Z" fill="#EBEBEB"/>
<path d="M99.98 76.15V115.68C99.98 117.181 99.3836 118.621 98.3222 119.682C97.2607 120.744 95.8211 121.34 94.32 121.34H36.71C35.2088 121.34 33.7692 120.744 32.7077 119.682C31.6463 118.621 31.05 117.181 31.05 115.68V28.68C31.0473 27.935 31.1918 27.1969 31.4751 26.5079C31.7583 25.8189 32.1748 25.1925 32.7007 24.6648C33.2265 24.1371 33.8513 23.7184 34.5393 23.4327C35.2274 23.1471 35.965 23 36.71 23H94.32C95.8211 23 97.2607 23.5963 98.3222 24.6578C99.3836 25.7192 99.98 27.1589 99.98 28.66V37.6" stroke="#007B64" stroke-width="2" stroke-linecap="round" stroke-linejoin="round"/>
<path d="M39.52 35.55H73.53" stroke="#FFC463" stroke-width="2" stroke-linecap="round" stroke-linejoin="round"/>
<path d="M79.01 35.55H88.45" stroke="#007B64" stroke-width="2" stroke-linecap="round" stroke-linejoin="round"/>
<path d="M39.9399 91.13H78.2899" stroke="#007B64" stroke-width="2" stroke-linecap="round" stroke-linejoin="round"/>
<path d="M39.9399 97.54H78.2899" stroke="#007B64" stroke-width="2" stroke-linecap="round" stroke-linejoin="round"/>
<path d="M39.52 103.95H77.87" stroke="#007B64" stroke-width="2" stroke-linecap="round" stroke-linejoin="round"/>
<path d="M100.77 70.09C108.055 70.09 113.96 64.1846 113.96 56.9C113.96 49.6153 108.055 43.71 100.77 43.71C93.4853 43.71 87.58 49.6153 87.58 56.9C87.58 64.1846 93.4853 70.09 100.77 70.09Z" fill="white" stroke="#007B64" stroke-width="2" stroke-linecap="round" stroke-linejoin="round"/>
<path d="M99.18 60.46V59.83C99.1169 59.0631 99.2132 58.2913 99.4627 57.5634C99.7122 56.8354 100.11 56.167 100.63 55.6C101.72 54.31 102.33 53.36 102.33 52.26C102.33 51.01 101.55 50.18 100.02 50.16C99.1383 50.1547 98.2762 50.42 97.55 50.92L96.96 49.38C98.005 48.7144 99.221 48.367 100.46 48.38C103.26 48.38 104.53 50.12 104.53 51.97C104.53 53.63 103.6 54.83 102.43 56.22C101.966 56.6918 101.603 57.2538 101.364 57.8712C101.124 58.4886 101.014 59.1484 101.04 59.81V60.44L99.18 60.46ZM98.63 63.88C98.6175 63.6804 98.6465 63.4805 98.715 63.2927C98.7836 63.1049 98.8902 62.9332 99.0283 62.7886C99.1663 62.644 99.3328 62.5295 99.5172 62.4523C99.7017 62.3751 99.9001 62.3368 100.1 62.34C100.404 62.3281 100.705 62.4073 100.965 62.5675C101.224 62.7278 101.429 62.9618 101.554 63.2395C101.68 63.5172 101.719 63.826 101.668 64.1263C101.617 64.4267 101.477 64.7049 101.267 64.9253C101.056 65.1456 100.785 65.2982 100.487 65.3634C100.19 65.4286 99.8793 65.4034 99.5961 65.2911C99.3128 65.1789 99.0696 64.9846 98.8974 64.7332C98.7253 64.4817 98.6322 64.1847 98.63 63.88V63.88Z" fill="#FFC463" stroke="#FFC463" stroke-width="0.41" stroke-linecap="round" stroke-linejoin="round"/>
<path d="M38.55 63.34C38.55 55.8 42.6801 51.53 48.1301 51.53C53.5801 51.53 57.7401 55.8 57.7401 63.34C57.7401 70.88 53.6301 75.15 48.1301 75.15C42.6301 75.15 38.55 70.89 38.55 63.34ZM53.4401 63.34C53.4401 57.8 51.2801 55.24 48.1301 55.24C44.9801 55.24 42.8501 57.8 42.8501 63.34C42.8501 68.88 45.0101 71.45 48.1301 71.45C51.2501 71.45 53.4401 68.89 53.4401 63.34Z" fill="#FFC463"/>
<path d="M68.4 51.86V74.86H64.14V55.44H59.28V51.86H68.4Z" fill="#FFC463"/>
</svg>

<svg width="145" height="145" fill="none" xmlns="http://www.w3.org/2000/svg"><path d="M5 121.34h135" stroke="#007B64" stroke-width="2" stroke-miterlimit="10" stroke-linecap="round"/><path d="M93.63 23h-57a6 6 0 00-6 6v86a6 6 0 006 6h57a6 6 0 006-6V29a6 6 0 00-6-6z" fill="#fff"/><path d="M31.05 112.26h68.93v4.15a4.928 4.928 0 01-4.93 4.93H35.97a4.928 4.928 0 01-4.93-4.93v-4.15h.01z" fill="#EBEBEB"/><path d="M99.98 76.15v39.53a5.66 5.66 0 01-5.66 5.66H36.71a5.658 5.658 0 01-5.66-5.66v-87A5.658 5.658 0 0136.71 23h57.61a5.66 5.66 0 015.66 5.66v8.94" stroke="#007B64" stroke-width="2" stroke-linecap="round" stroke-linejoin="round"/><path d="M39.52 35.55h34.01" stroke="#FFC463" stroke-width="2" stroke-linecap="round" stroke-linejoin="round"/><path d="M79.01 35.55h9.44M39.94 91.13h38.35m-38.35 6.41h38.35m-38.77 6.41h38.35" stroke="#007B64" stroke-width="2" stroke-linecap="round" stroke-linejoin="round"/><path d="M100.77 70.09c7.285 0 13.19-5.905 13.19-13.19 0-7.285-5.905-13.19-13.19-13.19-7.285 0-13.19 5.905-13.19 13.19 0 7.285 5.905 13.19 13.19 13.19z" fill="#fff" stroke="#007B64" stroke-width="2" stroke-linecap="round" stroke-linejoin="round"/><path d="M99.18 60.46v-.63a5.58 5.58 0 011.45-4.23c1.09-1.29 1.7-2.24 1.7-3.34 0-1.25-.78-2.08-2.31-2.1a4.31 4.31 0 00-2.47.76l-.59-1.54a6.39 6.39 0 013.5-1c2.8 0 4.07 1.74 4.07 3.59 0 1.66-.93 2.86-2.1 4.25a4.855 4.855 0 00-1.39 3.59v.63l-1.86.02zm-.55 3.42a1.45 1.45 0 011.47-1.54 1.535 1.535 0 011.454.9 1.527 1.527 0 01-1.067 2.123 1.53 1.53 0 01-1.857-1.483v0z" fill="#FFC463" stroke="#FFC463" stroke-width=".41" stroke-linecap="round" stroke-linejoin="round"/><path d="M38.55 63.34c0-7.54 4.13-11.81 9.58-11.81s9.61 4.27 9.61 11.81c0 7.54-4.11 11.81-9.61 11.81-5.5 0-9.58-4.26-9.58-11.81zm14.89 0c0-5.54-2.16-8.1-5.31-8.1-3.15 0-5.28 2.56-5.28 8.1 0 5.54 2.16 8.11 5.28 8.11s5.31-2.56 5.31-8.11zM68.4 51.86v23h-4.26V55.44h-4.86v-3.58h9.12z" fill="#FFC463"/></svg>
